packages/components/src/components/icon/mt5/ic-mt5-cfd-platform.svg

<svg width="64" height="64" viewBox="0 0 64 64" fill="none" xmlns="http://www.w3.org/2000/svg">
<path d="M28 48H36V52H50C51.1046 52 52 52.8954 52 54V58C52 59.1046 51.1046 60 50 60H14C12.8954 60 12 59.1046 12 58V54C12 52.8954 12.8954 52 14 52H28V48Z" fill="#333333"/>
<path d="M0 12C0 9.79086 1.79086 8 4 8H60C62.2091 8 64 9.79086 64 12V44C64 46.2091 62.2091 48 60 48H4C1.79086 48 0 46.2091 0 44V12Z" fill="#FFAD3A"/>
<g opacity="0.56">
<path d="M34.9961 13.999L40.0012 19.9991L30.001 19.9991L34.9961 13.999Z" fill="white"/>
<path d="M53.1221 14.8779C54.2937 16.0495 54.2937 17.949 53.1221 19.1206L52.2432 19.9996H43.7577L48.8794 14.8779C50.051 13.7063 51.9506 13.7063 53.1221 14.8779Z" fill="white"/>
<path d="M41.7577 21.9996L35.7574 27.9999H44.2429L50.2431 21.9996H41.7577Z" fill="white"/>
<path d="M33.7574 29.9999H42.2428L32.1218 40.121C31.5591 40.6836 30.7961 40.9997 30.0004 40.9997C29.2047 40.9997 28.4417 40.6836 27.879 40.121L21.0002 33.2422L13.1214 41.121C11.9498 42.2926 10.0503 42.2926 8.8787 41.121C7.7071 39.9494 7.7071 38.0499 8.8787 36.8783L18.8789 26.8781C20.0505 25.7065 21.95 25.7065 23.1216 26.8781L30.0004 33.7569L33.7574 29.9999Z" fill="white"/>
<path d="M46.0001 29.9987L51.0052 35.9988L56.0003 29.9987H46.0001Z" fill="white"/>
</g>
</svg>

<svg width="64" height="64" fill="none" xmlns="http://www.w3.org/2000/svg"><path d="M28 48h8v4h14a2 2 0 0 1 2 2v4a2 2 0 0 1-2 2H14a2 2 0 0 1-2-2v-4a2 2 0 0 1 2-2h14v-4z" fill="#333"/><path d="M0 12a4 4 0 0 1 4-4h56a4 4 0 0 1 4 4v32a4 4 0 0 1-4 4H4a4 4 0 0 1-4-4V12z" fill="#FFAD3A"/><g opacity=".56" fill="#fff"><path d="m34.996 13.999 5.005 6h-10l4.995-6zM53.122 14.878a3 3 0 0 1 0 4.243l-.879.879h-8.485l5.121-5.122a3 3 0 0 1 4.243 0zM41.758 22l-6 6h8.485l6-6h-8.485zM33.757 30h8.486L32.122 40.12a3 3 0 0 1-4.243 0L21 33.242l-7.879 7.879a3 3 0 1 1-4.242-4.243l10-10a3 3 0 0 1 4.243 0L30 33.757 33.757 30zM46 29.999l5.005 6 4.995-6H46z"/></g></svg>
